!!!OTL: 763. Nordisches Seefahrerlied.
!!!COM: K. Loewe
!!!ODT: 1840 (vor)
!!!ARE: Europa, Mitteleuropa, Deutschland
!!!SCT: B0763
!!!TXL: @@DE
!!!YEM: Copyright 1995, estate of Helmut Schaffrath.
**kern	**text
*ICvox	*
*Ivox	*
*clefG2	*
*M4/4	*
*met(c)	*
*k[f#]	*
*e:	*
=1	=1
!LO:TX:a:t=Ernſt und kräftig.	!
{4e	Nach
4g	dem
4b	Sturme
4b	.
=2	=2
4a	fah-
8bL	-ren
8ccJ	.
2b}	wir
=3	=3
{4ee^	ſi-
8ddL	-cher
8ccJ	.
4b	durch
4a	die
=4	=4
2b	Wellen,
2B}	.
=5	=5
{4e	laſ-
4g	-ſen,
4b	gro-
4b	-ßer
=6	=6
4a	Schöpfer,
8bL	.
8ccJ	.
2b}	dir
=7	=7
{4ee^	un-
8ddL	-ſer
8ccJ	.
4b	Lob
4a	er-
=8	=8
2b	-ſchellen.
2B}	.
=9	=9
{4ee^	Lo-
8ddL	-bet
8ccJ	.
4b	ihn
4b	mit
=10	=10
4dd^	Herʒ
8ccL	und
8bJ	.
2a}	Mund,
=11	=11
{4cc^	lo-
8bL	-bet
8aJ	.
4g	ihn
4g	ʒu
=12	=12
4b^	je-
8aL	-der
8gJ	.
2f#}	Stund',
=13	=13
{2.b	Chriſt
8g	Ky-
8a	-ri-
=14	=14
2.b	-e,
4b	komm
=15	=15
4ee	ʒu
8eL	uns
8f#J	.
4g	auf
4f#	den
=16	=16
2.e	See!
4r}	.
==	==
!!!Ag: Staende -, Seemanns - Lied, religioes
!!!GTL: Religioese Lieder
!!!ONB: ESAC (Essen Associative Code) Database: BOEHME
!!!AMT: simple quadruple
!!!AIN: vox
!!!EED: Helmut Schaffrath
!!!EEV: 1.0
!!Mel. v. K. Löwe vor 1840.
!!@@COMMENT:"Gedicht von Johannes Falk 1816. Der Text beginnt urſprünglich mit Str. 2 hier: "Wie
!!mit grimmgem Unverſtand". Die hier ſtehende Anfangs- bildet dort die Schlußſtrophe. Erk 1841
!!hat in ſeinen Schulliederheften eine alte Volksweiſe von 1807 (aus Büſchings Sammlung) dem
!!Falkſchen Texte angepaßt. Die hier ſtehende ſchöne Melodie iſt von C. Löwe vor 1840. Sie ſteht
!!in manchen Schulliederheften als "alte Volksmelodie". Eine mächtig wirkende Kompoſttion dieſes
!!Liedes giebt's für Männerchor mit Orcheſter von Jul. R. Dürrner (1810-1859), die auf dem
!!allgem. deutſchen Sängerfeſt in Dresden 1865 ʒur Aufführung kam."
!!@@END:
!!!Text: J. Falk
!!!URL-scan: https://archive.org/details/BoehmeVtLieder1895/page/n609/mode/2up
!!!ENC: Anna Maria Matuszewska
!!!EEV: 2024/19/07
*-	*-
